svg/calendar_expand_horizontal_outline.svg

<svg xmlns="http://www.w3.org/2000/svg" viewBox="0 0 24 24"><path d="M15 13H9v-2l-3 3 3 3v-2h6v2l3-3-3-3zm4-10h-1V1h-2v2H8V1H6v2H5c-1.1 0-2 .9-2 2v14c0 1.1.9 2 2 2h14c1.1 0 2-.9 2-2V5c0-1.1-.9-2-2-2m0 2v2H5V5zM5 19V9h14v10z"/></svg>

<svg xmlns="http://www.w3.org/2000/svg" id="mdi-calendar-expand-horizontal-outline" viewBox="0 0 24 24"><path d="M15 13H9V11L6 14L9 17V15H15V17L18 14L15 11V13M19 3H18V1H16V3H8V1H6V3H5C3.9 3 3 3.9 3 5V19C3 20.1 3.9 21 5 21H19C20.1 21 21 20.1 21 19V5C21 3.9 20.1 3 19 3M19 5V7H5V5H19M5 19V9H19V19H5Z" /></svg>
